X:1
T:Mrs Hogan's Goose -- jig
R:jig
C:J.HAND
B:Ryan's Mammoth Collection
Z:Contributed by Ray Davies. ray:davies99.freeserve.co.uk 29june02
M:6/8
L:1/8
K:Bm
"B MINOR"K(d/c/)|BAF BAF|BAF B2c|dB(B {c}B)^AB|cAF Fdc|\
BAF BAF|BAF B2c|dcB cec|cBB B2::
uc|d2e fdB|c2d ecA|d2e fdB|ce(c {c}B)AF|\
d2e fdB|c2d ecA|fed cdc|(cB)B B2:|
